assets/icons/qvision/no_food.svg

<svg width="24" height="24" viewBox="0 0 24 24" fill="none" xmlns="http://www.w3.org/2000/svg">
<g clip-path="url(#clip0_147_6248)">
<path d="M11.3499 8.52L10.9999 5H15.9999V1H17.9999V5H22.9999L21.6199 18.79L11.3499 8.52ZM0.999941 21V22C0.999941 22.55 1.44994 23 1.99994 23H14.9999C15.5499 23 15.9999 22.55 15.9999 22V21H0.999941ZM21.8999 21.9L2.09994 2.1L0.689941 3.51L6.38994 9.21C3.27994 9.87 0.999941 11.99 0.999941 15H12.1699L14.1699 17H0.999941V19H15.9999V18.83L20.4899 23.32L21.8999 21.9Z" fill="#323232"/>
</g>
<defs>
<clipPath id="clip0_147_6248">
<rect width="24" height="24" fill="white"/>
</clipPath>
</defs>
</svg>

<svg xmlns="http://www.w3.org/2000/svg" enable-background="new 0 0 24 24" height="24" viewBox="0 0 24 24" width="24"><g><rect fill="none" height="24" width="24"/><path d="M11.35,8.52L11,5h5V1h2v4h5l-1.38,13.79L11.35,8.52z M1,21v1c0,0.55,0.45,1,1,1h13c0.55,0,1-0.45,1-1v-1H1z M21.9,21.9 L2.1,2.1L0.69,3.51l5.7,5.7C3.28,9.87,1,11.99,1,15h11.17l2,2H1v2h15v-0.17l4.49,4.49L21.9,21.9z"/></g></svg>
